24x24/apps/KittehPlayer.svg

<svg height="24" width="24" xmlns="http://www.w3.org/2000/svg"><path d="m8.5 2s-2.5 2.5-2.5 4.5v1.5h12v-1.5c0-2-2.5-4.5-2.5-4.5s-2.5 2.5-2.5 4.5h-2c0-2-2.5-4.5-2.5-4.5z" fill="#df3d6b"/><path d="m8.5 4s-1.5 1.5-1.5 2.7h3c0-1.2-1.5-2.7-1.5-2.7zm7 0s-1.5 1.5-1.5 2.7h3c0-1.2-1.5-2.7-1.5-2.7z" opacity=".3"/><path d="m8.5 2s-2.5 2.5-2.5 4.5h.053c.345-1.893 2.447-4 2.447-4s2.102 2.107 2.447 4h.053c0-2-2.5-4.5-2.5-4.5zm7 0s-2.5 2.5-2.5 4.5h.053c.345-1.893 2.447-4 2.447-4s2.102 2.107 2.447 4h.053c0-2-2.5-4.5-2.5-4.5z" fill="#f4f4f7" opacity=".1"/><rect height="16" opacity=".2" rx="5" width="16" x="4" y="6.5"/><rect fill="#f45884" height="16" rx="5" width="16" x="4" y="6"/><path d="m9.75 8.5a3.747 3.747 0 0 0 -3.75 3.75v4.5a3.747 3.747 0 0 0 3.75 3.75h4.5a3.747 3.747 0 0 0 3.75-3.75v-4.5a3.747 3.747 0 0 0 -3.75-3.75zm0 .5h4.5a3.237 3.237 0 0 1 3.25 3.25v4.5a3.237 3.237 0 0 1 -3.25 3.25h-4.5a3.237 3.237 0 0 1 -3.25-3.25v-4.5a3.237 3.237 0 0 1 3.25-3.25zm.25 2.084v6.416l5.5-3.209z" opacity=".1"/><path d="m9.75 8a3.747 3.747 0 0 0 -3.75 3.75v4.5a3.747 3.747 0 0 0 3.75 3.75h4.5a3.747 3.747 0 0 0 3.75-3.75v-4.5a3.747 3.747 0 0 0 -3.75-3.75zm0 .5h4.5a3.237 3.237 0 0 1 3.25 3.25v4.5a3.237 3.237 0 0 1 -3.25 3.25h-4.5a3.237 3.237 0 0 1 -3.25-3.25v-4.5a3.237 3.237 0 0 1 3.25-3.25zm.25 2.084v6.416l5.5-3.209z" fill="#464646"/><path d="m9 6c-2.77 0-5 2.23-5 5v.5c0-2.77 2.23-5 5-5h6c2.77 0 5 2.23 5 5v-.5c0-2.77-2.23-5-5-5z" fill="#f4f4f7" opacity=".2"/></svg>

<svg xmlns="http://www.w3.org/2000/svg" width="24" height="24" version="1"><path style="fill:#df3d6b" d="M8.5 2S6 4.5 6 6.5V8h12V6.5c0-2-2.5-4.5-2.5-4.5S13 4.5 13 6.5h-2C11 4.5 8.5 2 8.5 2z"/><path style="opacity:.3" d="M8.5 4S7 5.5 7 6.7h3C10 5.5 8.5 4 8.5 4zm7 0S14 5.5 14 6.7h3C17 5.5 15.5 4 15.5 4z"/><path style="opacity:.1;fill:#f4f4f7" d="M8.5 2S6 4.5 6 6.5h.053c.345-1.893 2.447-4 2.447-4s2.102 2.107 2.447 4H11C11 4.5 8.5 2 8.5 2zm7 0S13 4.5 13 6.5h.053c.345-1.893 2.447-4 2.447-4s2.102 2.107 2.447 4H18c0-2-2.5-4.5-2.5-4.5z"/><rect style="opacity:.2" width="16" height="16" x="4" y="6.5" rx="5" ry="5"/><rect style="fill:#f45884" width="16" height="16" x="4" y="6" rx="5" ry="5"/><path style="opacity:.1;isolation:isolate" d="M9.75 8.5A3.747 3.747 0 0 0 6 12.25v4.5a3.747 3.747 0 0 0 3.75 3.75h4.5A3.747 3.747 0 0 0 18 16.75v-4.5a3.747 3.747 0 0 0-3.75-3.75zm0 .5h4.5a3.237 3.237 0 0 1 3.25 3.25v4.5A3.237 3.237 0 0 1 14.25 20h-4.5a3.237 3.237 0 0 1-3.25-3.25v-4.5A3.237 3.237 0 0 1 9.75 9zm.25 2.084V17.5l5.5-3.209z"/><path style="isolation:isolate;fill:#464646" d="M9.75 8A3.747 3.747 0 0 0 6 11.75v4.5A3.747 3.747 0 0 0 9.75 20h4.5A3.747 3.747 0 0 0 18 16.25v-4.5A3.747 3.747 0 0 0 14.25 8h-4.5zm0 .5h4.5a3.237 3.237 0 0 1 3.25 3.25v4.5a3.237 3.237 0 0 1-3.25 3.25h-4.5a3.237 3.237 0 0 1-3.25-3.25v-4.5A3.237 3.237 0 0 1 9.75 8.5zm.25 2.084V17l5.5-3.209-5.5-3.207z"/><path style="opacity:.2;fill:#f4f4f7" d="M9 6c-2.77 0-5 2.23-5 5v.5c0-2.77 2.23-5 5-5h6c2.77 0 5 2.23 5 5V11c0-2.77-2.23-5-5-5z"/></svg>
